plasma/desktoptheme/DeepinV20-white/icons/touchpad.svg

<svg version="1.1" viewBox="0 0 54 64" xmlns="http://www.w3.org/2000/svg">
 <defs>
  <style id="current-color-scheme" type="text/css">.ColorScheme-Text {
        color:#31363b;
      }
      .ColorScheme-Background {
        color:#eff0f1;
      }
      .ColorScheme-Highlight {
        color:#3daee9;
      }
      .ColorScheme-ViewText {
        color:#31363b;
      }
      .ColorScheme-ViewBackground {
        color:#fcfcfc;
      }
      .ColorScheme-ViewHover {
        color:#93cee9;
      }
      .ColorScheme-ViewFocus{
        color:#3daee9;
      }
      .ColorScheme-ButtonText {
        color:#31363b;
      }
      .ColorScheme-ButtonBackground {
        color:#eff0f1;
      }
      .ColorScheme-ButtonHover {
        color:#93cee9;
      }
      .ColorScheme-ButtonFocus{
        color:#3daee9;
      }
      .ColorScheme-NegativeText {
        color:#da4453;
      }</style>
 </defs>
 <g id="22-22-touchpad_enabled" transform="translate(0,32)">
  <path class="ColorScheme-Text" d="m4 13c-0.554 0-1 0.446-1 1v14c0 0.554 0.446 1 1 1h14c0.554 0 1-0.446 1-1v-14c0-0.554-0.446-1-1-1h-14zm0 1h14v11h-14v-11zm0 12h6v2h-6v-2zm8 0h6v2h-6v-2z" fill="currentColor"/>
  <path d="m0 10v22h22v-22h-22z" fill="none"/>
 </g>
 <g id="touchpad_enabled" transform="translate(0,32)">
  <path class="ColorScheme-Text" d="m27 4c-0.554 0-1 0.446-1 1v22c0 0.554 0.446 1 1 1h22c0.554 0 1-0.446 1-1v-22c0-0.554-0.446-1-1-1h-22zm0 1h22v17h-22v-17zm0 18h10v4h-10v-4zm12 0h10v4h-10v-4z" fill="currentColor"/>
  <path d="m22 0v32h32v-32h-32z" fill="none"/>
 </g>
 <g id="22-22-touchpad_disabled">
  <path class="ColorScheme-Text" d="m4 13c-0.554 0-1 0.446-1 1v14c0 0.554 0.446 1 1 1h14c0.554 0 1-0.446 1-1v-14c0-0.554-0.446-1-1-1h-14zm0 1h14v11h-14v-11zm0 12h6v2h-6v-2zm8 0h6v2h-6v-2z" fill="currentColor" fill-opacity=".6"/>
  <path d="m0 10v22h22v-22h-22z" fill="none"/>
  <path class="ColorScheme-NegativeText" d="M 8.8476562,17 8,17.847656 10.152344,20 8,22.152344 8.8476562,23 11,20.847656 13.152344,23 14,22.152344 11.847656,20 14,17.847656 13.152344,17 11,19.152344 8.8476562,17 Z" fill="currentColor"/>
 </g>
 <g id="touchpad_disabled">
  <path class="ColorScheme-Text" d="m27 4c-0.554 0-1 0.446-1 1v22c0 0.554 0.446 1 1 1h22c0.554 0 1-0.446 1-1v-22c0-0.554-0.446-1-1-1h-22zm0 1h22v17h-22v-17zm0 18h10v4h-10v-4zm12 0h10v4h-10v-4z" fill="currentColor" fill-opacity=".6"/>
  <path d="m22 0v32h32v-32h-32z" fill="none"/>
 </g>
 <path class="ColorScheme-NegativeText" d="M 34,10.207 37.293,13.5 34,16.793 c 0.013,0.025 0.707,0.707 0.707,0.707 L 38,14.207 41.293,17.5 42,16.793 38.707,13.5 42,10.207 41.293,9.5 38,12.793 34.707,9.5 Z" fill="currentColor"/>
</svg>

<?xml version="1.0" encoding="UTF-8" standalone="no"?>
<svg
   xmlns:dc="http://purl.org/dc/elements/1.1/"
   xmlns:cc="http://creativecommons.org/ns#"
   xmlns:rdf="http://www.w3.org/1999/02/22-rdf-syntax-ns#"
   xmlns:svg="http://www.w3.org/2000/svg"
   xmlns="http://www.w3.org/2000/svg"
   xmlns:sodipodi="http://sodipodi.sourceforge.net/DTD/sodipodi-0.dtd"
   xmlns:inkscape="http://www.inkscape.org/namespaces/inkscape"
   version="1.1"
   id="svg2"
   viewBox="0 0 54 64"
   inkscape:version="0.91 r13725"
   sodipodi:docname="touchpad.svgz">
  <sodipodi:namedview
     pagecolor="#ffffff"
     bordercolor="#666666"
     borderopacity="1"
     objecttolerance="10"
     gridtolerance="10"
     guidetolerance="10"
     inkscape:pageopacity="0"
     inkscape:pageshadow="2"
     inkscape:window-width="1400"
     inkscape:window-height="954"
     id="namedview20"
     showgrid="false"
     inkscape:zoom="3.6875"
     inkscape:cx="27"
     inkscape:cy="32"
     inkscape:window-x="0"
     inkscape:window-y="0"
     inkscape:window-maximized="0"
     inkscape:current-layer="svg2" />
  <metadata
     id="metadata32">
    <rdf:RDF>
      <cc:Work
         rdf:about="">
        <dc:format>image/svg+xml</dc:format>
        <dc:type
           rdf:resource="http://purl.org/dc/dcmitype/StillImage" />
        <dc:title />
      </cc:Work>
    </rdf:RDF>
  </metadata>
  <defs
     id="defs3051">
    <style
       type="text/css"
       id="current-color-scheme">
      .ColorScheme-Text {
        color:#31363b;
      }
      .ColorScheme-Background {
        color:#eff0f1;
      }
      .ColorScheme-Highlight {
        color:#3498db;
      }
      .ColorScheme-ViewText {
        color:#31363b;
      }
      .ColorScheme-ViewBackground {
        color:#fcfcfc;
      }
      .ColorScheme-ViewHover {
        color:#93cee9;
      }
      .ColorScheme-ViewFocus{
        color:#3498db;
      }
      .ColorScheme-ButtonText {
        color:#31363b;
      }
      .ColorScheme-ButtonBackground {
        color:#eff0f1;
      }
      .ColorScheme-ButtonHover {
        color:#93cee9;
      }
      .ColorScheme-ButtonFocus{
        color:#3498db;
      }
      .ColorScheme-NegativeText {
        color:#da4453;
      }
      </style>
  </defs>
  <g
     transform="translate(0,32)"
     id="22-22-touchpad_enabled">
    <path
       id="path7"
       class="ColorScheme-Text"
       d="m 4,13 c -0.554,0 -1,0.446 -1,1 l 0,14 c 0,0.554 0.446,1 1,1 l 14,0 c 0.554,0 1,-0.446 1,-1 l 0,-14 c 0,-0.554 -0.446,-1 -1,-1 L 4,13 Z m 0,1 14,0 0,11 -14,0 0,-11 z m 0,12 6,0 0,2 -6,0 0,-2 z m 8,0 6,0 0,2 -6,0 0,-2 z"
       style="fill:#3498db;fill-opacity:1;stroke:none" />
    <path
       id="path9"
       d="M 0 10 L 0 32 L 22 32 L 22 10 L 0 10 z "
       style="opacity:1;fill:none" />
  </g>
  <g
     transform="translate(0,32)"
     id="touchpad_enabled"
     inkscape:label="#touchpad_enabled">
    <path
       id="path12"
       class="ColorScheme-Text"
       d="M 27 4 C 26.446 4 26 4.446 26 5 L 26 27 C 26 27.554 26.446 28 27 28 L 49 28 C 49.554 28 50 27.554 50 27 L 50 5 C 50 4.446 49.554 4 49 4 L 27 4 z M 27 5 L 49 5 L 49 22 L 27 22 L 27 5 z M 27 23 L 37 23 L 37 27 L 27 27 L 27 23 z M 39 23 L 49 23 L 49 27 L 39 27 L 39 23 z "
       style="fill:#3498db;fill-opacity:1;stroke:none" />
    <path
       id="path14"
       d="M 22 0 L 22 32 L 54 32 L 54 0 L 22 0 z "
       style="opacity:1;fill:none" />
  </g>
  <g
     id="22-22-touchpad_disabled"
     inkscape:label="#22-22-touchpad_disabled">
    <path
       id="path17"
       class="ColorScheme-Text"
       d="m 4,13 c -0.554,0 -1,0.446 -1,1 l 0,14 c 0,0.554 0.446,1 1,1 l 14,0 c 0.554,0 1,-0.446 1,-1 l 0,-14 c 0,-0.554 -0.446,-1 -1,-1 L 4,13 Z m 0,1 14,0 0,11 -14,0 0,-11 z m 0,12 6,0 0,2 -6,0 0,-2 z m 8,0 6,0 0,2 -6,0 0,-2 z"
       style="fill:#3498db;fill-opacity:0.6;stroke:none" />
    <path
       id="path19"
       d="M 0 10 L 0 32 L 22 32 L 22 10 L 0 10 z "
       style="opacity:1;fill:none" />
    <path
       id="path21"
       class="ColorScheme-NegativeText"
       d="M 8.8476562,17 8,17.847656 10.152344,20 8,22.152344 8.8476562,23 11,20.847656 13.152344,23 14,22.152344 11.847656,20 14,17.847656 13.152344,17 11,19.152344 8.8476562,17 Z"
       style="fill:#3498db;fill-opacity:1;stroke:none" />
  </g>
  <g
     id="touchpad_disabled"
     inkscape:label="#touchpad_disabled">
    <path
       id="path24"
       class="ColorScheme-Text"
       d="M 27 4 C 26.446 4 26 4.446 26 5 L 26 27 C 26 27.554 26.446 28 27 28 L 49 28 C 49.554 28 50 27.554 50 27 L 50 5 C 50 4.446 49.554 4 49 4 L 27 4 z M 27 5 L 49 5 L 49 22 L 27 22 L 27 5 z M 27 23 L 37 23 L 37 27 L 27 27 L 27 23 z M 39 23 L 49 23 L 49 27 L 39 27 L 39 23 z "
       style="fill:#3498db;fill-opacity:0.6;stroke:none" />
    <path
       id="path26"
       d="M 22 0 L 22 32 L 54 32 L 54 0 L 22 0 z "
       style="opacity:1;fill:none" />
  </g>
  <path
     id="path28"
     class="ColorScheme-NegativeText"
     d="M 34,10.207 37.293,13.5 34,16.793 c 0.013,0.025 0.707,0.707 0.707,0.707 L 38,14.207 41.293,17.5 42,16.793 38.707,13.5 42,10.207 41.293,9.5 38,12.793 34.707,9.5 Z"
     style="fill:#3498db;fill-opacity:1;stroke:none" />
</svg>
